!!!!SEGMENT: pl-kk--kk-i-40--001-003_anonim--missa-sine-nomine-sanctus.krn
!!!cenid: 16xx:1279
!!!COM: Anonim
!!!COM-rismID: pe30004985
!!!CDT:
!!!CNT:
!!!OPR: Missa sine nomine
!!!OTL: Sanctus
!!!OMV: 003
!!!PDT:
!!!AGN: Sacred; Mass
!!!SMS-siglum: PL-Kk
!!!SMS-shelfmark: Kk.I.40
!!!SMS-shelfwork: 001-003 M
!!!SMS-variant:
!!!SMS-altvar:
!!!NIFC-rismSourceID: 1001154486
!!!NIFC-islandoraID: pl-kk:2717
!!!URL-pdf-islandora: https://repozytorium.nifc.pl/islandora/object/pl-kk%3A2717/datastream/PDF/view
!!!URL-scan: https://polish.musicsources.pl/pl/lokalizacje/galeria/rekopisy/6010 @EN{Scan on Polish Music Herritage in Open Access Website} @PL{Skany w portalu Dziedzictwo Muzyki Polskiej w otwartym dostępie}
!!!ONB-nifc: UWAGA: części Mszy: 1. Kyrie, 2. Et in terra, 3. Sanctus, 4. Agnus Dei. Skan 0003-0004
!!!AIN: 1 empty
!!!key:
**kern	**text
*Iempty	*
*I"Baſso Ripieno.	*
*I'B rip	*
*clefF3	*
*k[b-]	*
*g:	*
*M2/1	*
*met(C|)	*
=1-	=1-
!LO:TX:t=P:problem=kreska pseudotaktowa	!
!LO:TX:t=P:problem=przy kluczu BB- B-	!
00r	.
=2-	=2-
.	.
=3-	=3-
1.G	San-
*2\right	*
2F\	.
=4-	=4-
1E-X	.
!LO:TX:t=P:problem=kreska pseudotaktowa	!
1D	-ctus
=5-	=5-
2.G\	San-
!LO:TX:t=P:problem=kreska pseudotaktowa	!
4A\	.
4B-\	.
4c\	.
1d\	.
=6-	=6-
.	.
!LO:TX:t=P:problem=kreska pseudotaktowa	!
2c\	.
1B-	.
=7-	=7-
!LO:TX:t=P:problem=kreska pseudotaktowa	!
1A,<	-ctus
0r	.
=8-	=8-
.	.
2.D/	San-
4Eny/	.
=9-	=9-
4F\	.
4G\	.
!LO:TX:t=P:problem=kreska pseudotaktowa	!
2A\	.
2.G\	.
4F\	.
=10-	=10-
1E-X	.
!LO:TX:t=P:problem=kreska pseudotaktowa	!
1D	-ctus
=11-	=11-
2r	.
1G	Do-
2A\	-mi-
=12-	=12-
!LO:TX:t=P:problem=kreska pseudotaktowa	!
1B-,<	-n(us)
1c	De-
=13-	=13-
2.B-\	.
4A\	.
2G\	.
4F/	.
4Eny/	.
=14-	=14-
!LO:TX:t=P:problem=kreska pseudotaktowa	!
1D	-us
0r	.
=15-	=15-
.	.
2r	.
1F\	Do-
=16-	=16-
.	.
2G\	-mi-
!LO:TX:t=P:problem=kreska pseudotaktowa	!
1A	-n(us)
!LO:LB:g=original	!
=17-	=17-
1B-	De-
!LO:TX:t=P:problem=kreska pseudotaktowa	!
1A	-us
=18-	=18-
1.G	Sab-
!LO:TX:t=P:problem=kreska pseudotaktowa	!
2A\	.
=19-	=19-
2.B-\	.
4A\	.
4G\	.
4F\	.
!LO:TX:t=P:problem=kreska pseudotaktowa	!
[<2G\	.
=20-	=20-
!LO:N:xstem:cue	!
4G\]	.
4F/	.
2E-X/	.
1D	.
=21-	=21-
2.C/	.
4C/	-ba-
!LO:TX:t=P:problem=kreska pseudotaktowa	!
1BB-	-oth.
=22-	=22-
!LO:TX:t=P:problem=kreska pseudotaktowa	!
00r	.
=23-	=23-
.	.
=24-	=24-
1.BB-	Do-
2C/	-mi-
=25-	=25-
!LO:TX:t=P:problem=kreska pseudotaktowa	!
1D	-n(us)
1E-X	De-
=26-	=26-
!LO:TX:t=P:problem=kreska pseudotaktowa	!
1D	-us
1C	Sab-
=27-	=27-
1D	.
0.D	.
=28-	=28-
.	.
!LO:TX:t=P:problem=kreska pseudotaktowa	!
2D/	-ba-
=29-	=29-
0Gl;	-oth.
=30||	=30||
!LO:TX:a:Bi:t=Pleni sunt\nTacet	!
.	.
!LO:LB:g=original	!
=31-	=31-
*M3/2	*
00.r	.
=32-	=32-
.	.
=33-	=33-
.	.
=34-	=34-
.	.
=35-	=35-
!LO:TX:t=P:problem=kreska pseudotaktowa	!
1.r	.
=36-	=36-
1G	O-
!LO:TX:t=P:problem=kreska pseudotaktowa	!
2G\	-san-
=37-	=37-
2.C/	-na
4D/	.
!LO:TX:t=P:problem=kreska pseudotaktowa	!
2E/	.
=38-	=38-
4F/	in
4E/	.
4D/	.
4C/	.
!LO:TX:t=P:problem=kreska pseudotaktowa	!
2BB-/	ex-
=39-	=39-
2C/	-cel-
1D	.
=40-	=40-
!LO:TX:t=P:problem=kreska pseudotaktowa	!
1.G	-sis.
=41-	=41-
0.r	.
=42-	=42-
.	.
=43-	=43-
2r	.
2d\	O-
!LO:TX:t=P:problem=kreska pseudotaktowa	!
2d\	-san-
=44-	=44-
2G,<\	-na
2A\	in
!LO:TX:t=P:problem=kreska pseudotaktowa	!
2c\	ex-
=45-	=45-
2B-\	-cel-
1A	.
=46-	=46-
!LO:TX:t=P:problem=kreska pseudotaktowa	!
1.D,<	-ſis
=47-	=47-
!LO:TX:t=P:problem=kreska pseudotaktowa	!
0.r	.
=48-	=48-
.	.
=49-	=49-
*	*ij
1A	O-
!LO:TX:t=P:problem=kreska pseudotaktowa	!
2B-\	-san-
=50-	=50-
2A\	-na
2G\	in
!LO:TX:t=P:problem=kreska pseudotaktowa	!
2A\	ex-
=51-	=51-
2F\	-cel-
!LO:TX:t=P:problem=kreska pseudotaktowa	!
1G	.
=52-	=52-
!LO:TX:t=P:problem=kreska pseudotaktowa	!
1.F	-ſis
*	*Xij
=53-	=53-
1D	O-
!LO:TX:t=P:problem=kreska pseudotaktowa	!
2F/	-san-
!LO:PB:g=original	!
=54-	=54-
1G	-na
!LO:TX:t=P:problem=kreska pseudotaktowa	!
2D/	in
=55-	=55-
2F/	ex-
1E	-cel-
=56-	=56-
!LO:TX:t=P:problem=kreska pseudotaktowa	!
1.D	-ſis.
=57-	=57-
2G\	O-
2B-\	-san-
!LO:TX:t=P:problem=kreska pseudotaktowa	!
2c\	-na
=58-	=58-
2G\	in
2.d\	ex-
!LO:TX:t=P:problem=kreska pseudotaktowa	!
4c\	.
=59-	=59-
4B-\	-cel-
4A\	.
!LO:TX:t=P:problem=kreska pseudotaktowa	!
1G	.
=60-	=60-
2D/	.
!LO:TX:t=P:problem=kreska pseudotaktowa	!
1A,<	-sis
=61-	=61-
*	*ij
1D	O-
!LO:TX:t=P:problem=kreska pseudotaktowa	!
2A\	-san-
=62-	=62-
1D	-na
!LO:TX:t=P:problem=kreska pseudotaktowa	!
2C/	in
=63-	=63-
2G\	ex-
2F\	-cel-
!LO:TX:t=P:problem=kreska pseudotaktowa	!
2G\	.
=64-	=64-
1.D	.
=65-	=65-
1.Gl;	-sis
*clefC3	*Xij
=66||	=66||
*k[b-]	*
*M2/1	*
*met(C|)	*
!LO:TX:a:i:t=Alto. à 4 Voci.	!
00r	.
=67-	=67-
.	.
=68-	=68-
!LO:TX:t=P:problem=kreska pseudotaktowa	!
0r	.
=69-	=69-
0B-	Be-
=70-	=70-
!LO:TX:t=P:problem=kreska pseudotaktowa	!
1c	-ne-
1d	-dic-
=71-	=71-
2e\	-tus
!LO:TX:t=P:problem=kreska pseudotaktowa	!
2d\	qui
!LO:LB:g=original	!
1c	ve-
=72-	=72-
!LO:TX:t=P:problem=kreska pseudotaktowa	!
1d	-nit
4G/	Be-
4A/	.
4B-/	-ne-
4c/	.
=73-	=73-
4d\	.
4e\	.
4f\	.
!LO:TX:t=P:problem=kreska pseudotaktowa	!
4g\	.
2a\	.
1g\	-dic-
=74-	=74-
.	.
!LO:TX:t=P:problem=kreska pseudotaktowa	!
2f\	.
2g\	-tus
2.a\	qui
=75-	=75-
.	.
4g\	.
1g	ve-
!LO:TX:t=P:problem=kreska pseudotaktowa	!
2f\	.
=76-	=76-
2.g\	.
4f\	.
4d\	.
4e\	.
2f\	.
=77-	=77-
!LO:TX:t=P:problem=kreska pseudotaktowa	!
!LO:TX:a:t=P:problem=♭ above	!
1B-X,<	-nit
!LO:TX:t=P:problem=kreska pseudotaktowa	!
00r	.
=78-	=78-
.	.
=79-	=79-
.	.
0F	Be-
=80-	=80-
.	.
!LO:TX:t=P:problem=kreska pseudotaktowa	!
1G	-ne-
=81-	=81-
1A	-dic-
2B-/	-tus
2A/	qui
=82-	=82-
1G	ve-
!LO:TX:t=P:problem=kreska pseudotaktowa	!
1A,<	-nit
=83-	=83-
2r	.
2G/	in
2.B-/	N(o-
4c/	-mi)-
=84-	=84-
2d,<\	-ne
4G/	Do-
!LO:TX:t=P:problem=kreska pseudotaktowa	!
4A/	.
4B-/	.
4c/	.
*custos:d	*
!LO:TX:t=P:problem=kreska pseudotaktowa	!
[<2d\	.
!LO:LB:g=original	!
=85-	=85-
!LO:N:xstem:cue	!
4d\]	.
4e\	.
4f\	.
!LO:TX:t=P:problem=kreska pseudotaktowa	!
4d\	.
4e\	.
4f\	.
1g\	.
=86-	=86-
.	.
2f\	-mi-
!LO:TX:t=P:problem=kreska pseudotaktowa	!
1g	-ni
=87-	=87-
2r	.
2.G/	Do-
4A/	.
4B-/	.
!LO:TX:t=P:problem=kreska pseudotaktowa	!
4c/	.
=88-	=88-
1d	.
2c/	.
2B-/	-mi-
=89-	=89-
!LO:TX:t=P:problem=kreska pseudotaktowa	!
1A	-ni
2r	.
2d\	in
=90-	=90-
2.f\	N(o-
!LO:TX:t=P:problem=kreska pseudotaktowa	!
4g\	-mi)-
2a\	-ne
4d\	Do-
!LO:TX:t=P:problem=kreska pseudotaktowa	!
4e\	.
=91-	=91-
4f\	.
4g\	.
!LO:TX:t=P:problem=kreska pseudotaktowa	!
[<2a\	.
!LO:N:xstem:cue	!
4a\]	.
4g\	.
4f\	.
4e\	.
=92-	=92-
1.d	.
4c/	.
!LO:TX:t=P:problem=kreska pseudotaktowa	!
4B-/	.
=93-	=93-
2A/	.
!LO:TX:t=P:problem=kreska pseudotaktowa	!
2c/	.
1.G	.
=94-	=94-
.	.
1g\	.
!LO:TX:a:t=P:problem=# above	!
2f#X\	-mi-
=95-	=95-
!LO:TX:t=P:problem=kreska pseudotaktowa	!
1g,<	-ni
2r	.
2G/	in
=96-	=96-
2.B-/	N(o-
4c/	-mi)-
!LO:TX:t=P:problem=kreska pseudotaktowa	!
1d	-ne
!LO:LB:g=original	!
=97-	=97-
2r	.
4G/	Do-
!LO:TX:t=P:problem=kreska pseudotaktowa	!
4A/	.
4B-/	.
4c/	.
2.d\	.
=98-	=98-
.	.
4c/	.
!LO:TX:t=P:problem=kreska pseudotaktowa	!
2B-/	.
1A	.
=99-	=99-
1.G	.
2d\	-mi-
=100-	=100-
!LO:TX:b:Bi:t=Osanna\nda Capo.	!
0dl;	-ni.
==	==
*-	*-
!!!RDF**kern: > = above
!!!RDF**kern: < = below
!!!RDF**kern: l = terminal long
!!!ENC: Andrzej Kubiczek
!!!END: 2021-07-30
!!!ENC: Berenika Jozajtis
!!!END: 2021-07-04
